public/img/svg/advantage-4.svg

<svg fill="none" height="73" viewBox="0 0 73 73" width="73" xmlns="http://www.w3.org/2000/svg"><g fill="#000"><path d="m21.351 70.1703h-17.51352c-.25805 0-.50553-.1025-.688-.285s-.28498-.4299-.28498-.688v-17.5135c0-.2581.10251-.5055.28498-.688s.42995-.285.688-.285c.25804 0 .50552.1025.68799.285s.28498.4299.28498.688v16.5405h16.54055c.258 0 .5055.1025.688.285s.285.43.285.688c0 .2581-.1025.5055-.285.688s-.43.285-.688.285z"/><path d="m3.83748 21.5215c-.25805 0-.50553-.1025-.688-.285s-.28498-.43-.28498-.688v-17.51352c0-.25804.10251-.50552.28498-.68799s.42995-.28498.688-.28498h17.51352c.258 0 .5055.10251.688.28498s.285.42995.285.68799c0 .25805-.1025.50553-.285.688s-.43.28498-.688.28498h-16.54055v16.54054c0 .258-.10251.5055-.28498.688s-.42995.285-.68799.285z"/><path d="m69.9997 21.5215c-.2581 0-.5056-.1025-.688-.285-.1825-.1825-.285-.43-.285-.688v-16.54054h-16.5405c-.2581 0-.5056-.10251-.688-.28498-.1825-.18247-.285-.42995-.285-.688 0-.25804.1025-.50552.285-.68799.1824-.18247.4299-.28498.688-.28498h17.5135c.258 0 .5055.10251.688.28498.1824.18247.2849.42995.2849.68799v17.51352c0 .258-.1025.5055-.2849.688-.1825.1825-.43.285-.688.285z"/><path d="m69.9997 70.1703h-17.5135c-.2581 0-.5056-.1025-.688-.285-.1825-.1825-.285-.4299-.285-.688 0-.258.1025-.5055.285-.688.1824-.1825.4299-.285.688-.285h16.5405v-16.5405c0-.2581.1025-.5055.285-.688.1824-.1825.4299-.285.688-.285.258 0 .5055.1025.688.285.1824.1825.2849.4299.2849.688v17.5135c0 .2581-.1025.5055-.2849.688-.1825.1825-.43.285-.688.285z"/><path d="m36.9188 56.5487c-4.0412 0-7.9916-1.1983-11.3517-3.4435-3.3601-2.2451-5.979-5.4362-7.5254-9.1698-1.5465-3.7335-1.9511-7.8418-1.1628-11.8053.7884-3.9635 2.7344-7.6042 5.592-10.4617 2.8575-2.8576 6.4982-4.8036 10.4617-5.5919 3.9635-.7884 8.0718-.3838 11.8053 1.1627 3.7336 1.5465 6.9247 4.1653 9.1698 7.5254 2.2452 3.3601 3.4435 7.3105 3.4435 11.3517.0034 2.1138-.3249 4.215-.973 6.227-.0334.1282-.0927.2481-.1742.3525-.0815.1045-.1834.1912-.2995.2548-.1162.0637-.2441.1029-.3759.1154-.1319.0125-.2649-.0021-.3909-.0428-.1261-.0407-.2425-.1067-.3421-.194s-.1803-.194-.2373-.3136c-.0569-.1196-.0888-.2495-.0937-.3819-.005-.1323.0171-.2643.065-.3878.5846-1.8192.88-3.7188.8757-5.6296-.0026-3.9587-1.2766-7.8119-3.6344-10.9919-2.3579-3.1799-5.6748-5.5184-9.462-6.6709-3.7872-1.1524-7.8445-1.0579-11.5739.2696-3.7295 1.3275-6.9339 3.8179-9.1412 7.1042-2.2072 3.2862-3.3004 7.1946-3.1187 11.1491.1818 3.9545 1.629 7.7461 4.1284 10.816 2.4993 3.0699 5.9187 5.2559 9.7542 6.2357 3.8356.9798 7.8844.7017 11.5499-.7933.2387-.0962.5058-.0938.7428.0065s.4246.2904.5217.5287c.0972.2383.0959.5054-.0034.7428s-.2886.4258-.5265.5239c-2.4516 1.0014-5.0751 1.515-7.7234 1.512z"/><path d="m50.1511 51.3529c-.1962.0003-.3878-.0588-.5497-.1694-.162-.1105-.2868-.2675-.358-.4502s-.0855-.3827-.0411-.5737.1455-.3642.2901-.4967c.659-.6032 1.2669-1.2599 1.8175-1.9635.0782-.1017.1758-.1869.2871-.2507s.2342-.105.3614-.1211c.1273-.0162.2566-.007.3803.027s.2395.0921.3407.171c.1011.0789.1857.177.2488.2888.0631.1117.1034.2348.1188.3622.0153.1274.0053.2565-.0295.38s-.0937.2389-.1733.3396c-.6164.7896-1.2972 1.5267-2.0354 2.2038-.1799.1635-.4146.2538-.6577.2529z"/><path d="m36.9188 64.819c-.2581 0-.5056-.1025-.688-.285-.1825-.1825-.285-.4299-.285-.688v-55.45945c0-.25805.1025-.50553.285-.688.1824-.18247.4299-.28498.688-.28498.258 0 .5055.10251.688.28498.1824.18247.285.42995.285.688v55.45945c0 .2581-.1026.5055-.285.688-.1825.1825-.43.285-.688.285z"/><path d="m64.6485 37.0893h-55.45946c-.25805 0-.50553-.1025-.688-.285s-.28498-.43-.28498-.688c0-.2581.10251-.5055.28498-.688s.42995-.285.688-.285h55.45946c.258 0 .5055.1025.688.285s.285.4299.285.688c0 .258-.1025.5055-.285.688s-.43.285-.688.285z"/></g></svg>

<svg width="73" height="73" viewBox="0 0 73 73" fill="none" xmlns="http://www.w3.org/2000/svg">
<path d="M21.351 70.1703H3.83748C3.57943 70.1703 3.33195 70.0678 3.14948 69.8853C2.96701 69.7028 2.8645 69.4554 2.8645 69.1973V51.6838C2.8645 51.4257 2.96701 51.1783 3.14948 50.9958C3.33195 50.8133 3.57943 50.7108 3.83748 50.7108C4.09552 50.7108 4.343 50.8133 4.52547 50.9958C4.70794 51.1783 4.81045 51.4257 4.81045 51.6838V68.2243H21.351C21.609 68.2243 21.8565 68.3268 22.039 68.5093C22.2215 68.6918 22.324 68.9393 22.324 69.1973C22.324 69.4554 22.2215 69.7028 22.039 69.8853C21.8565 70.0678 21.609 70.1703 21.351 70.1703Z" fill="black"/>
<path d="M3.83748 21.5215C3.57943 21.5215 3.33195 21.419 3.14948 21.2365C2.96701 21.054 2.8645 20.8065 2.8645 20.5485V3.03498C2.8645 2.77694 2.96701 2.52946 3.14948 2.34699C3.33195 2.16452 3.57943 2.06201 3.83748 2.06201H21.351C21.609 2.06201 21.8565 2.16452 22.039 2.34699C22.2215 2.52946 22.324 2.77694 22.324 3.03498C22.324 3.29303 22.2215 3.54051 22.039 3.72298C21.8565 3.90545 21.609 4.00796 21.351 4.00796H4.81045V20.5485C4.81045 20.8065 4.70794 21.054 4.52547 21.2365C4.343 21.419 4.09552 21.5215 3.83748 21.5215Z" fill="black"/>
<path d="M69.9997 21.5215C69.7416 21.5215 69.4941 21.419 69.3117 21.2365C69.1292 21.054 69.0267 20.8065 69.0267 20.5485V4.00796H52.4862C52.2281 4.00796 51.9806 3.90545 51.7982 3.72298C51.6157 3.54051 51.5132 3.29303 51.5132 3.03498C51.5132 2.77694 51.6157 2.52946 51.7982 2.34699C51.9806 2.16452 52.2281 2.06201 52.4862 2.06201H69.9997C70.2577 2.06201 70.5052 2.16452 70.6877 2.34699C70.8701 2.52946 70.9726 2.77694 70.9726 3.03498V20.5485C70.9726 20.8065 70.8701 21.054 70.6877 21.2365C70.5052 21.419 70.2577 21.5215 69.9997 21.5215Z" fill="black"/>
<path d="M69.9997 70.1703H52.4862C52.2281 70.1703 51.9806 70.0678 51.7982 69.8853C51.6157 69.7028 51.5132 69.4554 51.5132 69.1973C51.5132 68.9393 51.6157 68.6918 51.7982 68.5093C51.9806 68.3268 52.2281 68.2243 52.4862 68.2243H69.0267V51.6838C69.0267 51.4257 69.1292 51.1783 69.3117 50.9958C69.4941 50.8133 69.7416 50.7108 69.9997 50.7108C70.2577 50.7108 70.5052 50.8133 70.6877 50.9958C70.8701 51.1783 70.9726 51.4257 70.9726 51.6838V69.1973C70.9726 69.4554 70.8701 69.7028 70.6877 69.8853C70.5052 70.0678 70.2577 70.1703 69.9997 70.1703Z" fill="black"/>
<path d="M36.9188 56.5487C32.8776 56.5487 28.9272 55.3504 25.5671 53.1052C22.207 50.8601 19.5881 47.669 18.0417 43.9354C16.4952 40.2019 16.0906 36.0936 16.8789 32.1301C17.6673 28.1666 19.6133 24.5259 22.4709 21.6684C25.3284 18.8108 28.9691 16.8648 32.9326 16.0765C36.8961 15.2881 41.0044 15.6927 44.7379 17.2392C48.4715 18.7857 51.6626 21.4045 53.9077 24.7646C56.1529 28.1247 57.3512 32.0751 57.3512 36.1163C57.3546 38.2301 57.0263 40.3313 56.3782 42.3433C56.3448 42.4715 56.2855 42.5914 56.204 42.6958C56.1225 42.8003 56.0206 42.887 55.9045 42.9506C55.7883 43.0143 55.6604 43.0535 55.5286 43.066C55.3967 43.0785 55.2637 43.0639 55.1377 43.0232C55.0116 42.9825 54.8952 42.9165 54.7956 42.8292C54.696 42.7419 54.6153 42.6352 54.5583 42.5156C54.5014 42.396 54.4695 42.2661 54.4646 42.1337C54.4596 42.0014 54.4817 41.8694 54.5296 41.7459C55.1142 39.9267 55.4096 38.0271 55.4053 36.1163C55.4027 32.1576 54.1287 28.3044 51.7709 25.1244C49.413 21.9445 46.0961 19.606 42.3089 18.4535C38.5217 17.3011 34.4644 17.3956 30.735 18.7231C27.0055 20.0506 23.8011 22.541 21.5938 25.8273C19.3866 29.1135 18.2934 33.0219 18.4751 36.9764C18.6569 40.9309 20.1041 44.7225 22.6035 47.7924C25.1028 50.8623 28.5222 53.0483 32.3577 54.0281C36.1933 55.0079 40.2421 54.7298 43.9076 53.2348C44.1463 53.1386 44.4134 53.141 44.6504 53.2413C44.8874 53.3416 45.075 53.5317 45.1721 53.77C45.2693 54.0083 45.268 54.2754 45.1687 54.5128C45.0694 54.7502 44.8801 54.9386 44.6422 55.0367C42.1906 56.0381 39.5671 56.5517 36.9188 56.5487Z" fill="black"/>
<path d="M50.1511 51.3529C49.9549 51.3532 49.7633 51.2941 49.6014 51.1835C49.4394 51.073 49.3146 50.916 49.2434 50.7333C49.1722 50.5506 49.1579 50.3506 49.2023 50.1596C49.2467 49.9686 49.3478 49.7954 49.4924 49.6629C50.1514 49.0597 50.7593 48.403 51.3099 47.6994C51.3881 47.5977 51.4857 47.5125 51.597 47.4487C51.7083 47.3849 51.8312 47.3437 51.9584 47.3276C52.0857 47.3114 52.215 47.3206 52.3387 47.3546C52.4624 47.3886 52.5782 47.4467 52.6794 47.5256C52.7805 47.6045 52.8651 47.7026 52.9282 47.8144C52.9913 47.9261 53.0316 48.0492 53.047 48.1766C53.0623 48.304 53.0523 48.4331 53.0175 48.5566C52.9827 48.6801 52.9238 48.7955 52.8442 48.8962C52.2278 49.6858 51.547 50.4229 50.8088 51.1C50.6289 51.2635 50.3942 51.3538 50.1511 51.3529Z" fill="black"/>
<path d="M36.9188 64.819C36.6607 64.819 36.4132 64.7165 36.2308 64.534C36.0483 64.3515 35.9458 64.1041 35.9458 63.846V8.38655C35.9458 8.1285 36.0483 7.88102 36.2308 7.69855C36.4132 7.51608 36.6607 7.41357 36.9188 7.41357C37.1768 7.41357 37.4243 7.51608 37.6068 7.69855C37.7892 7.88102 37.8918 8.1285 37.8918 8.38655V63.846C37.8918 64.1041 37.7892 64.3515 37.6068 64.534C37.4243 64.7165 37.1768 64.819 36.9188 64.819Z" fill="black"/>
<path d="M64.6485 37.0893H9.18904C8.93099 37.0893 8.68351 36.9868 8.50104 36.8043C8.31857 36.6218 8.21606 36.3743 8.21606 36.1163C8.21606 35.8582 8.31857 35.6108 8.50104 35.4283C8.68351 35.2458 8.93099 35.1433 9.18904 35.1433H64.6485C64.9065 35.1433 65.154 35.2458 65.3365 35.4283C65.519 35.6108 65.6215 35.8582 65.6215 36.1163C65.6215 36.3743 65.519 36.6218 65.3365 36.8043C65.154 36.9868 64.9065 37.0893 64.6485 37.0893Z" fill="black"/>
</svg>
